X: 11037
T: Dublin Coddle
R: mazurka
M: 3/4
K: Amajor
c>B|(3ABA E2 c>B|(3ABA E2 (3cde|(3fgf e2 A2|G4 B>A|
(3GAG E2 B>A|(3GAG E2 (3cde|(3fgf e2 B2|A4 c>B|
(3ABA E2 c>B|(3ABA E2 (3cde|(3fgf e>A (3fga|b2 f>^e f>g|
a>c a>A (3agf|(3efe c>e (3cde|g>G e>G d>G|A4||
c>B|A>E A>B (3cde|a>g a>c’ b>a|a>c a>A a>f|g4 B>^A|
B>F B>c d>e|g2 g>a g>f|e>B e>E G>E|c2 c>e c>B|
A>E A>B (3cde|a>g a>c’ b>a|a>c a>A a>g|f2 f>^e f>g|
a>g b>a (3agf|(3efe c>e A>e|g>G e>G d>G|A4||

